!!!COM: Palestrina, Giovanni Perluigi da
!!!OPR: Missa Assumpta est Maria
!!!OMD: Kyrie
!!!OTL: First Section
**kern	**kern	**kern	**kern	**kern	**kern
*Ibass	*Itenor	*Itenor	*Icalto	*Icant	*Icant
!Bassus	!Tenor 2	!Tenor 1	!Altus	!Cantus 2	!Cantus 1
*clefF4	*clefGv2	*clefGv2	*clefG2	*clefG2	*clefG2
*k[]	*k[]	*k[]	*k[]	*k[]	*k[]
*G:mix	*G:mix	*G:mix	*G:mix	*G:mix	*G:mix
*M4/2	*M4/2	*M4/2	*M4/2	*M4/2	*M4/2
=1	=1	=1	=1	=1	=1
0r	0r	1c	0r	1r	0r
.	.	2.e	.	1g	.
.	.	4f	.	.	.
=2	=2	=2	=2	=2	=2
0r	0r	1.g	0r	2.b	2r
.	.	.	.	.	2g
.	.	.	.	4cc	.
.	.	.	.	2dd	2b
.	.	2e	.	2g	2cc
=3	=3	=3	=3	=3	=3
0r	0r	2f	0r	2a	2dd
.	.	2g	.	2b	2dd
.	.	4c	.	1cc	1ee
.	.	4d	.	.	.
.	.	4e	.	.	.
.	.	4f	.	.	.
=4	=4	=4	=4	=4	=4
0r	0r	2g	0r	1b	1dd
.	.	2G	.	.	.
.	.	2.c	.	2cc	2ee
.	.	.	.	4ee	4cc
.	.	4B	.	4dd	4dd
=5	=5	=5	=5	=5	=5
0r	0r	4c	0r	4cc	4ee
.	.	4d	.	4b	4ff
.	.	2e	.	4b	1gg
.	.	.	.	8a	.
.	.	.	.	8g	.
.	.	[1d	.	1a	.
.	.	.	.	.	2ff#
=6	=6	=6	=6	=6	=6
1G	1r	2d]	0r	1b	1gg
.	.	2g	.	.	.
2.A	2r	2e	.	[1cc	1r
.	2c	2a	.	.	.
4B	.	.	.	.	.
=7	=7	=7	=7	=7	=7
1.c	2.e	4g	2r	0cc]	0r
.	.	4f	.	.	.
.	.	4e	2c	.	.
.	4f	4d	.	.	.
.	2g	1c	2e	.	.
2A	2c	.	2f	.	.
=8	=8	=8	=8	=8	=8
2B	2d	0r	2g	0r	2r
2c	2e	.	2g	.	1cc
4F	1f	.	1a	.	.
4G	.	.	.	.	.
4A	.	.	.	.	2cc
4B	.	.	.	.	.
=9	=9	=9	=9	=9	=9
2c	1e	0r	1g	2r	2.cc
2C	.	.	.	1cc	.
.	.	.	.	.	4b
2F	2f	.	2a	.	1a
4F	4a	.	4f	2cc	.
4E	4g	.	4g	.	.
=10	=10	=10	=10	=10	=10
4F	4f	0r	4a	2cc	1a
4G	4e	.	4b	.	.
2A	4e	.	1cc	2cc	.
.	8d	.	.	.	.
.	8c	.	.	.	.
2G	2d	.	.	2.gg	2dd
2G	2d	.	2b	.	2dd
.	.	.	.	4gg	.
=11	=11	=11	=11	=11	=11
0C	0c	1r	1cc	1gg	1ee
.	.	2r	2r	2r	2r
.	.	[2c	[2g	[2cc	[2ee
=12	=12	=12	=12	=12	=12
0r	0r	2c]	2g]	2cc]	2ee]
.	.	2G	2g	2b	2dd
.	.	2c	2g	2cc	2ee
.	.	2c	2a	2cc	2ee
=13	=13	=13	=13	=13	=13
0r	0r	1.c	2.g	4cc	4ee
.	.	.	.	4b	4dd
.	.	.	.	4cc	4ee
.	.	.	4f	4dd	4ff
.	.	.	2e	2ee	2gg
.	.	2d	2a	2dd	2ff
=14	=14	=14	=14	=14	=14
1r	1r	4e	1g	2cc	1ee
.	.	4c	.	.	.
.	.	4e	.	4b	.
.	.	4f	.	4a	.
2r	2r	1g	2r	1b	2dd
[2G	[2g	.	[2b	.	[2dd
=15	=15	=15	=15	=15	=15
2G]	2g]	0r	2b]	0r	2dd]
2C	2e	.	2cc	.	2ee
2F	2f	.	2a	.	2cc
2F	2f	.	2a	.	2cc
=16	=16	=16	=16	=16	=16
1.F	1.f	0r	2.cc	2r	4a
.	.	.	.	.	4g
.	.	.	.	1a	4a
.	.	.	4b	.	4b
.	.	.	2a	.	2cc
2G	2d	.	2g	2b	2b
=17	=17	=17	=17	=17	=17
4A	2.c	0r	1f	2cc	1a
4F	.	.	.	.	.
4A	.	.	.	2cc	.
4B	4d	.	.	.	.
1c	4e	.	1e	2cc	1g
.	4c	.	.	.	.
.	4e	.	.	2cc	.
.	4f	.	.	.	.
=18	=18	=18	=18	=18	=18
1G	1g	2r	1d	2b	2r
.	.	1g	.	1dd	1b
1r	1r	.	1r	.	.
.	.	2c	.	2ee	2cc
=19	=19	=19	=19	=19	=19
0r	0r	2g	0r	2dd	2b
.	.	2g	.	2dd	2b
.	.	[1g	.	4dd	4b
.	.	.	.	4cc	4a
.	.	.	.	4b	4b
.	.	.	.	4a	4cc
=20	=20	=20	=20	=20	=20
0r	0r	2g]	0r	4b	4dd
.	.	.	.	4g	4b
.	.	2f	.	2.a	2.cc
.	.	1e	.	.	.
.	.	.	.	4g	4b
.	.	.	.	[2g	4b
.	.	.	.	.	8a
.	.	.	.	.	8g
=21	=21	=21	=21	=21	=21
1r	1r	1d	1r	2g]	2a
.	.	.	.	2f#	2a
2r	2r	1e	2r	2g	1g
[2c	[2e	.	[2g	[2cc	.
=22	=22	=22	=22	=22	=22
2c]	2e]	0r	2g]	2cc]	0r
2F	2f	.	2a	2cc	.
2c	2e	.	2g	2cc	.
2c	2e	.	2g	2cc	.
=23	=23	=23	=23	=23	=23
1.c	4e	0r	4g	4cc	0r
.	4d	.	4f	4dd	.
.	4e	.	4e	4cc	.
.	4f	.	4d	4b	.
.	2e	.	2c	2a	.
2B	2d	.	2d	2g	.
=24	=24	=24	=24	=24	=24
1A	1c	1r	2e	1cc	1r
.	.	.	2f#	.	.
1G	1d	2r	1g	2b	2r
.	.	[2g	.	[2b	[2dd
=25	=25	=25	=25	=25	=25
1r	1r	2g]	1r	2b]	2dd]
.	.	2c	.	2cc	2ee
2r	2r	2.g	2r	1b	1dd
[2G	[2d	.	[2b	.	.
.	.	8f	.	.	.
.	.	8e	.	.	.
=26	=26	=26	=26	=26	=26
2G]	2d]	2d	2b]	1g	1gg
2C	2e	2c	2cc	.	.
2G	2d	2d	2b	2.g	2gg
2G	2d	2B	2b	.	4g
.	.	.	.	4g	4a
=27	=27	=27	=27	=27	=27
1.G	4d	2B	4b	1g	4b
.	4c	.	4a	.	4cc
.	4B	4G	4b	.	2dd
.	4A	4A	4cc	.	.
.	2G	4B	2b	1r	2ee
.	.	4c	.	.	.
2F	2A	2d	[2a	.	[2dd
=28	=28	=28	=28	=28	=28
1E	2B	1G	4a]	1r	2dd]
.	.	.	4g	.	.
.	2G	.	1g	.	2cc
1D	1A	[1d	.	2r	2.dd
.	.	.	2f#	[2dd	.
.	.	.	.	.	4cc
=29	=29	=29	=29	=29	=29
0G	[0G	1d]	1g	2dd]	1b
.	.	.	.	2g	.
.	.	1B	1g	2dd	2r
.	.	.	.	2dd	[2gg
=30	=30	=30	=30	=30	=30
1C	0G]	1.c	2.e	1.ee	2gg]
.	.	.	.	.	2cc
.	.	.	4d	.	.
2C	.	.	2c	.	2.gg
2G	.	2B	2d	2dd	.
.	.	.	.	.	4ff
=31	=31	=31	=31	=31	=31
1C	[0G	1c	2.e	1cc	1ee
.	.	.	4f	.	.
1C	.	1c	2g	1cc	2ee
.	.	.	2g	.	2ee
=32	=32	=32	=32	=32	=32
0G	0G]	0d	0g	0b	0dd
*-	*-	*-	*-	*-	*-
!!!CDT: 1525/^1526/-1594/2/2
!!!OCY: Italia
!!!AGN: Mass (Parody)
!!!AST: renaissance, vocal
!!!ASW: Motet (Palestrina)
!!!PWK: Masses, Book 9
!!!RNB: Cadence finals: C
!!!YOR: Le Opere Complete, v. 25, p. 209
!!!YOO: Rome, Italy: Fratelli Scalera
!!!END: 1992//
!!!EED: John Miller
!!!YEC: Copyright 2000, John Miller
!!!YEN: United States of America
!!!YEM: Rights to all derivative electronic formats reserved.
!!!YEM: Refer to licensing agreement for further details.
!!!YEM: This file must be accompanied by the licensing agreement.
!!!YEM: A copy of the licensing agreement may be found at http://www.music-cog.ohio-state.edu/HumdrumDatabases/Palestrina/license.txt
!!!EMD: converted to Humdrum by Bret Aarden
